packages/ui-icons/src/Service-logos/24/MF-TV.svg

<?xml version="1.0" encoding="UTF-8"?>
<svg viewBox="0 0 32 32" version="1.1" xmlns="http://www.w3.org/2000/svg" xmlns:xlink="http://www.w3.org/1999/xlink">
    <!-- Generator: Sketch 51.2 (57519) - http://www.bohemiancoding.com/sketch -->
    <title>mftv</title>
    <desc>Created with Sketch.</desc>
    <defs>
        <polygon id="path-1" points="0.0002 0.0004 24 0.0004 24 24 0.0002 24"></polygon>
    </defs>
    <g id="mftv" stroke="none" stroke-width="1" fill="none" fill-rule="evenodd">
        <g id="Group-3" transform="translate(4.000000, 4.000000)">
            <mask id="mask-2" fill="white">
                <use xlink:href="#path-1"></use>
            </mask>
            <g id="Clip-2"></g>
            <polygon id="Fill-1" fill="#731982" mask="url(#mask-2)" points="7.522 14 4 15.703 7.322 19.5 9.297 15.794"></polygon>
            <path d="M12.2002,18.9004 C11.5002,18.9004 11.0002,18.9004 10.5002,18.7004 L10.7002,17.9004 C11.1002,18.0004 11.6002,18.0994 12.1002,18.0994 C15.5002,18.0994 18.3002,15.2994 18.3002,11.9004 C18.3002,8.5004 15.5002,5.7004 12.1002,5.7004 C8.7002,5.7004 5.9002,8.5004 5.9002,11.9004 C5.9002,12.7004 6.0002,13.5004 6.3002,14.2004 L5.5002,14.5004 C5.2002,13.7994 5.0002,12.9004 5.0002,12.0004 C5.0002,8.2004 8.1002,5.0004 12.0002,5.0004 C15.9002,5.0004 19.0002,8.2004 19.2002,11.9004 C19.2002,15.7994 16.0992,18.9004 12.2002,18.9004 Z M9.9002,14.9004 L9.9002,9.2004 L15.4002,12.1004 L9.9002,14.9004 Z M9.2002,18.7004 C8.7582,18.7004 8.4002,18.3414 8.4002,17.9004 C8.4002,17.4584 8.7582,17.0994 9.2002,17.0994 C9.6412,17.0994 10.0002,17.4584 10.0002,17.9004 C10.0002,18.3414 9.6412,18.7004 9.2002,18.7004 Z M7.6002,17.9004 C7.1582,17.9004 6.8002,17.5424 6.8002,17.0994 C6.8002,16.6584 7.1582,16.2994 7.6002,16.2994 C8.0422,16.2994 8.4002,16.6584 8.4002,17.0994 C8.4002,17.5424 8.0422,17.9004 7.6002,17.9004 Z M5.8002,15.7004 C5.8002,15.2574 6.1582,14.9004 6.6002,14.9004 C7.0422,14.9004 7.4002,15.2574 7.4002,15.7004 C7.4002,16.1414 7.0422,16.5004 6.6002,16.5004 C6.1582,16.5004 5.8002,16.1414 5.8002,15.7004 Z M12.0002,0.0004 C5.4002,0.0004 0.0002,5.4004 0.0002,12.0004 C0.0002,18.5994 5.4002,24.0004 12.0002,24.0004 C18.5992,24.0004 24.0002,18.5994 24.0002,12.0004 C24.0002,5.4004 18.5992,0.0004 12.0002,0.0004 Z" id="Fill-1" fill="#44B759" mask="url(#mask-2)"></path>
        </g>
    </g>
</svg>

<svg viewBox="0 0 32 32" xmlns="http://www.w3.org/2000/svg" xmlns:xlink="http://www.w3.org/1999/xlink"><defs><path id="a" d="M0 0h24v24H0z"/></defs><g transform="translate(4 4)" fill="none" fill-rule="evenodd"><mask id="b" fill="#fff"><use xlink:href="#a"/></mask><path fill="#731982" mask="url(#b)" d="M7.522 14 4 15.703 7.322 19.5l1.975-3.706z"/><path d="M12.2 18.9c-.7 0-1.2 0-1.7-.2l.2-.8c.4.1.9.2 1.4.2 3.4 0 6.2-2.8 6.2-6.2 0-3.4-2.8-6.2-6.2-6.2-3.4 0-6.2 2.8-6.2 6.2 0 .8.1 1.6.4 2.3l-.8.3c-.3-.7-.5-1.6-.5-2.5 0-3.8 3.1-7 7-7s7 3.2 7.2 6.9c0 3.9-3.1 7-7 7Zm-2.3-4V9.2l5.5 2.9-5.5 2.8Zm-.7 3.8a.8.8 0 1 1 .001-1.6.8.8 0 0 1 0 1.6Zm-1.6-.8a.8.8 0 1 1 0-1.6.8.8 0 0 1 0 1.6Zm-1.8-2.2a.8.8 0 1 1 1.598-.001.8.8 0 0 1-1.598.001ZM12 0C5.4 0 0 5.4 0 12s5.4 12 12 12 12-5.4 12-12S18.6 0 12 0Z" fill="#44B759" mask="url(#b)"/></g></svg>
